www/assets/icons/text_rotate_up.svg

<svg xmlns="http://www.w3.org/2000/svg" width="24" height="24" viewBox="0 0 24 24" fill='currentColor'><path d="M3 12v1.5l11 4.75v-2.1l-2.2-.9v-5l2.2-.9v-2.1zm7 2.62-5.02-1.87L10 10.88zm8-10.37-3 3h2v12.5h2V7.25h2z"/></svg>

<svg width="24" height="24" viewBox="0 0 24 24" xmlns="http://www.w3.org/2000/svg" fill='currentColor'><path d="M3 12V13.5L14 18.25V16.15L11.8 15.25V10.25L14 9.35V7.25L3 12ZM10 14.62L4.98 12.75L10 10.88V14.62ZM18 4.25L15 7.25H17V19.75H19V7.25H21L18 4.25Z"/></svg>
